packages/components/src/telekom/icons/weather/moon-thunder-rain/selected.svg

<?xml version="1.0" encoding="UTF-8"?>
<svg width="24px" height="24px" viewBox="0 0 24 24" version="1.1" xmlns="http://www.w3.org/2000/svg" xmlns:xlink="http://www.w3.org/1999/xlink">
    <title>icon/weather/moon-thunder-rain/selected</title>
    <g id="icon/weather/moon-thunder-rain/selected" stroke="none" stroke-width="1" fill="none" fill-rule="evenodd">
        <path d="M10.5984,19.1713 C10.6828375,19.0938625 10.8109156,19.1473469 10.8279,19.2483479 L10.8279,19.2943 L10.3589,22.2933 C10.2564,22.9488 9.6419,23.3968 8.9864,23.2943 C8.0333375,23.1452792 7.65014392,22.0030057 8.27336672,21.3095825 L8.3604,21.2218 L10.5984,19.1713 Z M8.8099,15.1998 L6.2479,18.7998 L8.7354,18.7998 L3.6884,22.8778 C3.56105,22.98085 3.393605,22.849 3.4357475,22.7115205 L3.4579,22.6658 L5.2634,19.9998 L3.3514,19.9998 L6.0124,15.1998 L8.8099,15.1998 Z M12.8759,13.8153 C12.9474714,13.7501571 13.0550429,13.7930143 13.0732965,13.8768044 L13.0744,13.9218 L12.5529,17.2553 C12.4419,17.9658 11.7759,18.4513 11.0659,18.3398 C10.0315,18.17852 9.6173368,16.9371248 10.2971865,16.1860208 L10.3879,16.0948 L12.8759,13.8153 Z M10.2204,5.9618 C12.5739,5.9618 14.6489,7.4138 15.4629,9.6008 C16.8429,10.3318 17.7209,11.7733 17.7209,13.3443 C17.7209,15.5698 15.9954,17.3958 13.8129,17.5643 L13.8374,17.4553 L14.3589,14.1228 C14.4234,13.7143 14.3064,13.2978 14.0369,12.9823 C13.7664,12.6653 13.3719,12.4838 12.9554,12.4838 C12.6528286,12.4838 12.3605429,12.5800449 12.1182163,12.7577359 L12.0014,12.8533 L10.8589,13.8998 L5.2469,13.8998 L3.2954,17.4198 C1.6934,16.9448 0.5209,15.4618 0.5209,13.7078 C0.5209,12.3163 1.2714,11.0393 2.4629,10.3528 C2.5829,8.5408 4.0954,7.1038 5.9369,7.1038 C6.2009,7.1038 6.4649,7.1343 6.7244,7.1953 C7.7174,6.3978 8.9459,5.9618 10.2204,5.9618 Z M18.2974,0.4863 C19.1869,0.2528 20.0824,0.2568 20.9184,0.4558 C18.9939,1.3818 17.9299,3.5673 18.4929,5.7098 C19.1249,8.1158 21.5689,9.5608 23.9759,8.9713 C23.2704,9.9048 22.2619,10.6198 21.0419,10.9398 C20.1299,11.1798 19.2119,11.1698 18.3574,10.9553 C17.9259,10.0763 17.2669,9.3148 16.4189,8.7713 C15.9339,7.6838 15.1934,6.7733 14.2819,6.0953 C14.0994,3.5518 15.7409,1.1578 18.2974,0.4863 Z" id="Shape" fill="#262626"></path>
    </g>
</svg>

<svg width="24" height="24" xmlns="http://www.w3.org/2000/svg"><path d="M10.598 19.171a.138.138 0 01.23.077v.046l-.47 3a1.201 1.201 0 01-1.372 1c-.953-.149-1.336-1.291-.713-1.984l.087-.088 2.238-2.05zM8.81 15.2l-2.562 3.6h2.487l-5.047 4.078c-.127.103-.294-.029-.252-.166l.022-.046L5.263 20H3.351l2.661-4.8H8.81zm4.066-1.385a.12.12 0 01.197.062l.001.045-.521 3.333a1.3 1.3 0 01-1.487 1.085c-1.035-.161-1.449-1.403-.769-2.154l.09-.091 2.489-2.28zM10.22 5.962A5.577 5.577 0 0115.463 9.6a4.246 4.246 0 012.258 3.743 4.24 4.24 0 01-3.908 4.22l.024-.109.522-3.332a1.42 1.42 0 00-2.24-1.365l-.118.095L10.86 13.9H5.247l-1.952 3.52a3.878 3.878 0 01-2.774-3.712c0-1.392.75-2.669 1.942-3.355a3.486 3.486 0 014.261-3.158 5.575 5.575 0 013.496-1.233zM18.297.486a5.383 5.383 0 012.621-.03 4.55 4.55 0 003.058 8.515 5.374 5.374 0 01-2.934 1.969c-.912.24-1.83.23-2.685.015a5.421 5.421 0 00-1.938-2.184 6.749 6.749 0 00-2.137-2.676A5.404 5.404 0 0118.297.486z" fill="#000" fill-rule="evenodd"/></svg>
